X: 30100
T: Olahos
R: polka
M: 2/4
K: Bminor
|:FB/c/ d/c/B|FB/c/ d/c/B/F/|ff ^ed|c2 c2:|
|:f>^g ag/a/|ba ^gf|^gf ^ed|c2 c2|
f>^g aa|b{b/a/}a ^gf|^g{f/g/}f dc|B2 B2:|

